icons/solid/cloud-download.svg

<svg width="24" height="24" viewBox="0 0 24 24" fill="none" xmlns="http://www.w3.org/2000/svg">
<path fill-rule="evenodd" clip-rule="evenodd" d="M6.91301 7.02868C7.75078 5.77217 9.62609 4 12.5 4C14.6295 4 16.1507 5.07973 17.1069 6.33005C17.7761 7.20524 18.2051 8.20886 18.3919 9.07502C19.1771 9.20223 20.0868 9.50524 20.8968 10.0885C22.0918 10.9489 23 12.3741 23 14.5C23 16.6259 22.0918 18.0511 20.8968 18.9115C19.7528 19.7352 18.41 20 17.5 20H7.5C6.42331 20 4.83054 19.6852 3.4782 18.7115C2.07487 17.7011 1 16.0259 1 13.5C1 10.9741 2.07487 9.29886 3.4782 8.28847C4.60179 7.47948 5.89136 7.12534 6.91301 7.02868ZM13 10C13 9.44772 12.5523 9 12 9C11.4477 9 11 9.44772 11 10V14.5858L9.70711 13.2929C9.31658 12.9024 8.68342 12.9024 8.29289 13.2929C7.90237 13.6834 7.90237 14.3166 8.29289 14.7071L11.2929 17.7071C11.6834 18.0976 12.3166 18.0976 12.7071 17.7071L15.7071 14.7071C16.0976 14.3166 16.0976 13.6834 15.7071 13.2929C15.3166 12.9024 14.6834 12.9024 14.2929 13.2929L13 14.5858V10Z" fill="currentColor"/>
</svg>

<svg width="24" height="24" fill="none" xmlns="http://www.w3.org/2000/svg"><path fill-rule="evenodd" clip-rule="evenodd" d="M6.913 7.029C7.751 5.772 9.626 4 12.5 4c2.13 0 3.65 1.08 4.607 2.33a7.133 7.133 0 011.285 2.745c.785.127 1.695.43 2.505 1.014C22.092 10.948 23 12.373 23 14.5c0 2.126-.908 3.551-2.103 4.412C19.753 19.735 18.41 20 17.5 20h-10c-1.077 0-2.67-.315-4.022-1.288C2.075 17.701 1 16.026 1 13.5s1.075-4.201 2.478-5.212c1.124-.809 2.413-1.163 3.435-1.26zM13 10a1 1 0 10-2 0v4.586l-1.293-1.293a1 1 0 00-1.414 1.414l3 3a1 1 0 001.414 0l3-3a1 1 0 00-1.414-1.414L13 14.586V10z" fill="currentColor"/></svg>
